printer-3d-nozzle-off.svg

<svg fill="currentColor" viewBox="0 0 24 24"><path d="M20.8 22.7 14 15.9 13 17h-2l-3.5-4H5V8h1.1l-5-5 1.3-1.3 19.7 19.7zM11 19c0 .6-.4 1-1 1H2v2h8c1.7 0 3-1.3 3-3v-1h-2zm8-6V8h-2V2H7v1.8l9.2 9.2z"/></svg>

<svg  viewBox="0 0 24 24" fill="currentColor"><path  d="M20.8 22.7L14 15.9L13 17H11L7.5 13H5V8H6.1L1.1 3L2.4 1.7L22.1 21.4L20.8 22.7M11 19C11 19.6 10.6 20 10 20H2V22H10C11.7 22 13 20.7 13 19V18H11V19M19 13V8H17V2H7V3.8L16.2 13H19Z"/></svg>
